!!!COM: nobuo-uematsu
!!!OTL: final-fantasy-prologue
!!!RNB: hooktheoryid: kjDgXOVEmKl
**kern	**text
*clefG2	*
*k[b-e-]	*
*M4/4	*
=1	=1
4f	Bb
4b-	.
4cc	F/A
4f	.
=2	=2
2ee-	Eb/G
4dd	Dm/F
4cc	.
=3	=3
4b-	Eb
8a	.
8b-	.
4cc	C/E
4b-	.
=4	=4
2b-	F7sus4
2a	F
=5	=5
4g	Cm/Eb
4cc	.
4dd	G/D
4g	.
=6	=6
2ff	Cm
4ee-	G/B
4dd	.
=7	=7
4cc	Cm
8b	.
8dd	.
4cc	C7/Bb
4g	.
=8	=8
2dd	F/A
2cc	F
=9	=9
1r	.
*-	*-